packages/icons/src/smtp-configuration-blue.svg

<svg fill="none" viewBox="0 0 65 64" xmlns="http://www.w3.org/2000/svg"><path clip-rule="evenodd" d="m17.0405 5.96649c.5523 0 1 .44772 1 1v3.45531c2.3189-1.55798 4.9295-2.76547 7.776-3.52819 11.624-3.11462 23.517 2.16175 29.2531 12.11399h2.1964c.5523 0 1 .4478 1 1v12c0 .1666-.0407.3237-.1128.4619v11.5381c0 .5523-.4477 1-1 1h-44.7897c5.4958 8.537 16.0622 12.9507 26.394 10.1823 2.7228-.7296 5.2085-1.8983 7.4025-3.409h-3.676c-.5523 0-1-.4477-1-1 0-.5522.4477-1 1-1h6c.2652 0 .5196.1054.7071.2929.1875.1876.2929.4419.2929.7071v6c0 .5523-.4477 1-1 1s-1-.4477-1-1v-3.4846c-2.4252 1.702-5.1838 3.0149-8.2089 3.8255-11.6239 3.1146-23.517-2.1617-29.2531-12.1142h-2.8688c-.55229 0-1-.4477-1-1v-12c0-.1666.04074-.3236.11279-.4618v-11.5382c0-.5522.44772-1 1-1h45.46201c-5.4959-8.537-16.0622-12.9505-26.3938-10.18214-2.5597.68585-4.9097 1.75974-7.0049 3.14104h3.7112c.5523 0 1 .4477 1 1s-.4477 1-1 1h-6c-.2652 0-.5195-.1054-.7071-.2929-.1875-.1875-.2929-.4419-.2929-.7071v-6.00001c0-.55228.4477-1 1-1zm-8.8873 27.04111h48v10h-48zm48.1128-12v10h-48.00001v-10zm-13.8096 16h2v2h-2zm6.0276 0h-2v2h2zm2.0281 0h2v2h-2zm-16.0138 0h-22v2h22zm18.0138-12h-22v2h22zm-40.0138 0h2v2h-2zm6.0276 0h-2v2h2zm2.0279 0h2v2h-2z" fill="#0278d5" fill-rule="evenodd"/></svg>

<svg viewBox="0 0 65 64" fill="none" xmlns="http://www.w3.org/2000/svg">
<path fill-rule="evenodd" clip-rule="evenodd" d="M17.0405 5.96649C17.5928 5.96649 18.0405 6.41421 18.0405 6.96649V10.4218C20.3594 8.86382 22.97 7.65633 25.8165 6.89361C37.4405 3.77899 49.3335 9.05536 55.0696 19.0076H57.266C57.8183 19.0076 58.266 19.4554 58.266 20.0076V32.0076C58.266 32.1742 58.2253 32.3313 58.1532 32.4695V44.0076C58.1532 44.5599 57.7055 45.0076 57.1532 45.0076H12.3635C17.8593 53.5446 28.4257 57.9583 38.7575 55.1899C41.4803 54.4603 43.966 53.2916 46.16 51.7809H42.484C41.9317 51.7809 41.484 51.3332 41.484 50.7809C41.484 50.2287 41.9317 49.7809 42.484 49.7809H48.484C48.7492 49.7809 49.0036 49.8863 49.1911 50.0738C49.3786 50.2614 49.484 50.5157 49.484 50.7809V56.7809C49.484 57.3332 49.0363 57.7809 48.484 57.7809C47.9317 57.7809 47.484 57.3332 47.484 56.7809V53.2963C45.0588 54.9983 42.3002 56.3112 39.2751 57.1218C27.6512 60.2364 15.7581 54.9601 10.022 45.0076H7.1532C6.60091 45.0076 6.1532 44.5599 6.1532 44.0076V32.0076C6.1532 31.841 6.19394 31.684 6.26599 31.5458V20.0076C6.26599 19.4554 6.71371 19.0076 7.26599 19.0076H52.728C47.2321 10.4706 36.6658 6.0571 26.3342 8.82546C23.7745 9.51131 21.4245 10.5852 19.3293 11.9665H23.0405C23.5928 11.9665 24.0405 12.4142 24.0405 12.9665C24.0405 13.5188 23.5928 13.9665 23.0405 13.9665H17.0405C16.7753 13.9665 16.521 13.8611 16.3334 13.6736C16.1459 13.4861 16.0405 13.2317 16.0405 12.9665V6.96649C16.0405 6.41421 16.4882 5.96649 17.0405 5.96649ZM8.1532 33.0076H56.1532V43.0076H8.1532V33.0076ZM56.266 21.0076V31.0076H8.26599V21.0076H56.266ZM42.4564 37.0076H44.4564V39.0076H42.4564V37.0076ZM48.484 37.0076H46.484V39.0076H48.484V37.0076ZM50.5121 37.0076H52.5121V39.0076H50.5121V37.0076ZM34.4983 37.0076H12.4983V39.0076H34.4983V37.0076ZM52.5121 25.0076H30.5121V27.0076H52.5121V25.0076ZM12.4983 25.0076H14.4983V27.0076H12.4983V25.0076ZM18.5259 25.0076H16.5259V27.0076H18.5259V25.0076ZM20.5538 25.0076H22.5538V27.0076H20.5538V25.0076Z" fill="#0278D5"/>
</svg>
